static/img/svg/building.svg

<svg xmlns="http://www.w3.org/2000/svg" width="24" height="24" viewBox="0 0 24 24"><path d="M5,22h14c0.553,0,1-0.448,1-1V3c0-0.552-0.447-1-1-1H5C4.447,2,4,2.448,4,3v18C4,21.552,4.447,22,5,22z M6,4h12v16h-4v-2 h-4v2H6V4z"/><path d="M8 6H11V8H8zM13 6H16V8H13zM8 10H11V12H8zM13 10.031H16V12H13zM8 14H11V16H8zM13 14H16V16H13z"/></svg>

<svg xmlns="http://www.w3.org/2000/svg" width="24" height="24" viewBox="0 0 24 24"><path d="M5 22h14a1 1 0 0 0 1-1V3a1 1 0 0 0-1-1H5a1 1 0 0 0-1 1v18a1 1 0 0 0 1 1zM6 4h12v16h-4v-2h-4v2H6V4z"/><path d="M8 6h3v2H8zM13 6h3v2h-3zM8 10h3v2H8zM13 10.031h3V12h-3zM8 14h3v2H8zM13 14h3v2h-3z"/></svg>
